lib/brands/logos/facebook-watch.svg

<svg xmlns="http://www.w3.org/2000/svg" fill="none" aria-hidden="true" viewBox="0 0 304 45"><g id="Facebook Watch"><g id="Union"><path fill="#1877F2" d="M31.4932 20.8014L22.2473 26.2748C21.397 26.7791 20.3177 26.1708 20.3177 25.1902V14.2414C20.3177 13.2596 21.397 12.6519 22.2473 13.1565L31.4932 18.6301C32.3214 19.1209 32.3214 20.3107 31.4932 20.8014Z"/><path fill="#1877F2" fill-rule="evenodd" d="M40.1177 35.7254H10.6278C7.60737 35.7254 5.15088 33.2683 5.15088 30.2482V9.18389C5.15088 6.16468 7.60737 3.70731 10.6278 3.70731H40.1171C43.1372 3.70731 45.5937 6.1638 45.5937 9.18389V30.2482C45.5937 33.2677 43.1372 35.7254 40.1177 35.7254ZM10.6278 6.23575C9.00126 6.23575 7.67844 7.55915 7.67844 9.18477V30.2488C7.67844 31.8744 9.00126 33.1978 10.6278 33.1978H40.1171C41.7436 33.1978 43.0661 31.8744 43.0661 30.2488V9.18389C43.0661 7.55827 41.7436 6.23487 40.1171 6.23487H10.6278V6.23575Z" clip-rule="evenodd"/><path fill="#1877F2" d="M17.4844 40.7805H33.2624C33.3882 40.7805 33.5129 40.7558 33.6291 40.7076C33.7454 40.6595 33.851 40.5889 33.94 40.5C34.029 40.411 34.0996 40.3054 34.1478 40.1891C34.196 40.0729 34.2207 39.9483 34.2207 39.8224V39.211C34.2208 39.0851 34.1961 38.9605 34.148 38.8441C34.0999 38.7278 34.0293 38.6222 33.9404 38.5331C33.8514 38.4441 33.7457 38.3735 33.6295 38.3253C33.5132 38.2771 33.3886 38.2523 33.2627 38.2523H17.4844C17.3585 38.2523 17.2339 38.2771 17.1176 38.3253C17.0013 38.3735 16.8956 38.4441 16.8066 38.5331C16.7176 38.6221 16.647 38.7278 16.5989 38.8441C16.5508 38.9604 16.526 39.0851 16.526 39.211V39.8224C16.5261 40.0766 16.6271 40.3202 16.8068 40.4999C16.9865 40.6796 17.2303 40.7805 17.4844 40.7805Z"/><path fill="#1877F2" d="M55.0921 30.8758H58.2073V21.8164H68.6336V19.1144H58.2073V11.3264H70.2228V8.62466H55.0921V30.8758Z"/><path fill="#1877F2" fill-rule="evenodd" d="M85.0352 30.8758H87.9278V14.9815H85.0352L84.9717 17.3813C84.3253 16.5339 83.483 15.8584 82.4448 15.355C81.4063 14.8516 80.2776 14.6 79.0593 14.6C77.5864 14.6 76.2701 14.9603 75.1097 15.6808C73.9496 16.4015 73.0356 17.3895 72.368 18.6451C71.7007 19.9006 71.3668 21.3286 71.3668 22.9283C71.3668 24.5281 71.7007 25.9561 72.368 27.2116C73.0356 28.4675 73.9496 29.4558 75.1097 30.1756C76.2701 30.8961 77.5864 31.257 79.0593 31.257C80.2779 31.257 81.4063 31.0053 82.4448 30.5016C83.483 29.9988 84.3253 29.3236 84.9717 28.4757L85.0352 30.8758ZM82.4289 27.8877C81.6345 28.3747 80.7228 28.6184 79.6952 28.6184C78.6672 28.6184 77.7559 28.3747 76.9614 27.8877C76.167 27.4002 75.5443 26.73 75.0941 25.8771C74.6436 25.0242 74.4186 24.0409 74.4186 22.9286C74.4186 21.8161 74.6436 20.8334 75.0941 19.9802C75.544 19.1273 76.1667 18.4571 76.9614 17.9695C77.7562 17.4826 78.6672 17.2385 79.6952 17.2385C80.7228 17.2385 81.6342 17.4823 82.4289 17.9695C83.2234 18.4571 83.8457 19.1276 84.2962 19.9802C84.7462 20.8334 84.9717 21.8161 84.9717 22.9286C84.9717 24.0409 84.7465 25.0242 84.2962 25.8771C83.846 26.7303 83.2237 27.4002 82.4289 27.8877Z" clip-rule="evenodd"/><path fill="#1877F2" d="M105.156 29.0954L103.758 26.8386C103.092 27.3776 102.344 27.8045 101.541 28.1027C100.73 28.4043 99.9172 28.5553 99.1013 28.5553C97.5223 28.5553 96.2456 28.036 95.2709 26.9978C94.2958 25.9593 93.8085 24.6033 93.8085 22.9289C93.8085 21.2549 94.2958 19.8986 95.2709 18.86C96.2456 17.8218 97.5223 17.3026 99.1013 17.3026C99.8534 17.3026 100.608 17.4297 101.366 17.6841C102.123 17.9384 102.805 18.2879 103.408 18.7332L104.807 16.4761C104.023 15.904 103.143 15.4484 102.169 15.1092C101.194 14.7703 100.144 14.6005 99.0217 14.6005C97.3684 14.6005 95.9167 14.9556 94.6667 15.6655C93.4162 16.3754 92.4414 17.3554 91.7421 18.6057C91.0428 19.856 90.6933 21.2971 90.6933 22.9286C90.6933 24.5607 91.0428 26.0016 91.7421 27.2516C92.4417 28.5021 93.4164 29.4825 94.6667 30.1921C95.917 30.9017 97.3687 31.2573 99.0217 31.2573C100.198 31.2573 101.308 31.0664 102.351 30.6849C103.395 30.3034 104.33 29.7741 105.156 29.0954Z"/><path fill="#1877F2" fill-rule="evenodd" d="M121.67 29.1591L120.335 26.9024C119.519 27.4536 118.676 27.8769 117.807 28.1735C116.938 28.4707 116.043 28.6187 115.121 28.6187C113.585 28.6187 112.332 28.229 111.363 27.4507C110.393 26.6718 109.792 25.5989 109.559 24.2321H121.86V22.452C121.86 20.0043 121.195 18.0841 119.865 16.6905C118.536 15.2975 116.721 14.6005 114.422 14.6005C112.854 14.6005 111.468 14.953 110.266 15.6576C109.063 16.3624 108.122 17.3399 107.445 18.5898C106.766 19.8401 106.428 21.2863 106.428 22.9286C106.428 24.6033 106.78 26.0653 107.484 27.3153C108.189 28.5656 109.177 29.5351 110.449 30.2235C111.72 30.9125 113.203 31.2573 114.899 31.2573C116.141 31.2601 117.376 31.0752 118.562 30.709C119.744 30.343 120.78 29.8267 121.67 29.1591ZM111.061 18.3514C111.913 17.5249 113.034 17.1117 114.422 17.1117C115.768 17.1117 116.84 17.5249 117.641 18.3514C118.441 19.1778 118.841 20.2692 118.841 21.6255V21.7844H109.511C109.691 20.3221 110.208 19.1778 111.061 18.3514Z" clip-rule="evenodd"/><path fill="#1877F2" fill-rule="evenodd" d="M124.944 30.8758H127.836L127.9 28.476C128.546 29.3236 129.389 29.9988 130.427 30.5019C131.465 31.0056 132.594 31.2573 133.812 31.2573C135.285 31.2573 136.602 30.8964 137.762 30.1759C138.922 29.4561 139.836 28.4675 140.504 27.2119C141.171 25.9564 141.505 24.5284 141.505 22.9286C141.505 21.3289 141.171 19.9009 140.504 18.6453C139.836 17.3898 138.922 16.4018 137.762 15.6811C136.602 14.9606 135.285 14.6002 133.812 14.6002C132.604 14.6002 131.486 14.8467 130.459 15.3392C129.431 15.832 128.589 16.4972 127.932 17.334V6.87599L124.944 7.19406V30.8758ZM135.91 27.8877C135.116 28.3747 134.204 28.6184 133.176 28.6184C132.149 28.6184 131.237 28.3747 130.443 27.8877C129.648 27.4002 129.026 26.73 128.575 25.8771C128.125 25.0242 127.9 24.0409 127.9 22.9286C127.9 21.8161 128.125 20.8334 128.575 19.9802C129.025 19.1273 129.648 18.4571 130.443 17.9695C131.237 17.4826 132.148 17.2385 133.176 17.2385C134.204 17.2385 135.115 17.4823 135.91 17.9695C136.705 18.4571 137.327 19.1276 137.777 19.9802C138.227 20.8334 138.453 21.8161 138.453 22.9286C138.453 24.0409 138.228 25.0242 137.777 25.8771C137.327 26.7303 136.705 27.4002 135.91 27.8877Z" clip-rule="evenodd"/><path fill="#1877F2" fill-rule="evenodd" d="M147.385 30.1921C148.635 30.9017 150.087 31.2573 151.74 31.2573C153.393 31.2573 154.844 30.9017 156.095 30.1921C157.345 29.4825 158.32 28.5021 159.019 27.2516C159.718 26.0016 160.068 24.5607 160.068 22.9286C160.068 21.2971 159.718 19.856 159.019 18.6057C158.32 17.3554 157.345 16.3754 156.095 15.6655C154.844 14.9556 153.393 14.6005 151.74 14.6005C150.087 14.6005 148.635 14.9556 147.385 15.6655C146.135 16.3754 145.16 17.3554 144.461 18.6057C143.761 19.856 143.411 21.2971 143.411 22.9286C143.411 24.5607 143.761 26.0016 144.461 27.2516C145.16 28.5021 146.135 29.4825 147.385 30.1921ZM154.474 27.8877C153.679 28.3747 152.768 28.6184 151.74 28.6184C150.712 28.6184 149.801 28.3747 149.006 27.8877C148.212 27.4002 147.589 26.73 147.139 25.8771C146.689 25.0242 146.464 24.0409 146.464 22.9286C146.464 21.8161 146.689 20.8334 147.139 19.9802C147.589 19.1273 148.212 18.4571 149.006 17.9695C149.801 17.4826 150.712 17.2385 151.74 17.2385C152.768 17.2385 153.679 17.4823 154.474 17.9695C155.268 18.4571 155.891 19.1276 156.342 19.9802C156.792 20.8334 157.017 21.8161 157.017 22.9286C157.017 24.0409 156.792 25.0242 156.342 25.8771C155.891 26.7303 155.268 27.4002 154.474 27.8877Z" clip-rule="evenodd"/><path fill="#1877F2" fill-rule="evenodd" d="M165.949 30.1921C167.199 30.9017 168.65 31.2573 170.304 31.2573C171.956 31.2573 173.408 30.9017 174.658 30.1921C175.909 29.4825 176.884 28.5021 177.583 27.2516C178.282 26.0016 178.631 24.5607 178.631 22.9286C178.631 21.2971 178.282 19.856 177.583 18.6057C176.884 17.3554 175.909 16.3754 174.658 15.6655C173.408 14.9556 171.956 14.6005 170.304 14.6005C168.65 14.6005 167.199 14.9556 165.949 15.6655C164.698 16.3754 163.724 17.3554 163.024 18.6057C162.325 19.856 161.975 21.2971 161.975 22.9286C161.975 24.5607 162.325 26.0016 163.024 27.2516C163.724 28.5021 164.698 29.4825 165.949 30.1921ZM173.037 27.8877C172.243 28.3747 171.331 28.6184 170.304 28.6184C169.276 28.6184 168.364 28.3747 167.57 27.8877C166.775 27.4002 166.152 26.73 165.702 25.8771C165.252 25.0242 165.027 24.0409 165.027 22.9286C165.027 21.8161 165.252 20.8334 165.702 19.9802C166.152 19.1273 166.775 18.4571 167.57 17.9695C168.364 17.4826 169.276 17.2385 170.304 17.2385C171.331 17.2385 172.243 17.4823 173.037 17.9695C173.832 18.4571 174.454 19.1276 174.905 19.9802C175.355 20.8334 175.58 21.8161 175.58 22.9286C175.58 24.0409 175.355 25.0239 174.905 25.8771C174.454 26.7303 173.832 27.4002 173.037 27.8877Z" clip-rule="evenodd"/><path fill="#1877F2" d="M181.429 30.8758H184.417V23.3263L192.22 30.8758H196.305L187.595 22.4837L195.192 14.9821H191.521L184.417 22.007V6.87599L181.429 7.19406V30.8758Z"/><path fill="#1877F2" d="M225.898 30.8758H229.172L236.452 8.62466H233.257L227.568 26.5846L221.973 9.32396H218.921L213.327 26.5846L207.637 8.62466H204.315L211.594 30.8758H214.868L220.383 13.933L225.898 30.8758Z"/><path fill="#1877F2" fill-rule="evenodd" d="M250.183 30.8758H253.076V14.9815H250.183L250.119 17.3813C249.473 16.5339 248.63 15.8584 247.592 15.355C246.553 14.8516 245.425 14.6 244.207 14.6C242.735 14.6 241.418 14.9603 240.257 15.6808C239.098 16.4015 238.183 17.3895 237.516 18.6451C236.849 19.9006 236.515 21.3286 236.515 22.9283C236.515 24.5281 236.849 25.9561 237.516 27.2116C238.183 28.4675 239.098 29.4558 240.257 30.1756C241.418 30.8961 242.734 31.257 244.207 31.257C245.425 31.257 246.553 31.0053 247.592 30.5016C248.631 29.9988 249.473 29.3236 250.119 28.4757L250.183 30.8758ZM247.577 27.8877C246.782 28.3747 245.871 28.6184 244.843 28.6184C243.815 28.6184 242.904 28.3747 242.109 27.8877C241.315 27.4002 240.692 26.73 240.242 25.8771C239.791 25.0242 239.566 24.0409 239.566 22.9286C239.566 21.8161 239.791 20.8334 240.242 19.9802C240.692 19.1273 241.315 18.4571 242.109 17.9695C242.904 17.4826 243.815 17.2385 244.843 17.2385C245.871 17.2385 246.782 17.4823 247.577 17.9695C248.372 18.4571 248.994 19.1276 249.444 19.9802C249.895 20.8334 250.12 21.8161 250.12 22.9286C250.12 24.0409 249.895 25.0239 249.444 25.8771C248.994 26.7303 248.372 27.4002 247.577 27.8877Z" clip-rule="evenodd"/><path fill="#1877F2" d="M265.918 30.7483V28.2055C265.35 28.2923 264.776 28.3348 264.201 28.3327C263.025 28.3327 262.164 28.0783 261.618 27.5702C261.073 27.0616 260.8 26.1396 260.8 24.8042V17.5569H265.6L265.981 14.9821H260.8V10.1821H257.812V14.9818H254.856V17.5566H257.813V24.9789C257.813 27.0031 258.252 28.5074 259.131 29.4928C260.011 30.4781 261.425 30.971 263.375 30.971C263.805 30.9707 264.234 30.9495 264.662 30.9072C265.082 30.8667 265.501 30.8137 265.918 30.7483Z"/><path fill="#1877F2" d="M281.43 29.0954L280.031 26.8386C279.366 27.3776 278.616 27.8046 277.813 28.1027C277.003 28.4043 276.19 28.5553 275.374 28.5553C273.795 28.5553 272.518 28.036 271.544 26.9978C270.568 25.9593 270.081 24.6033 270.081 22.9289C270.081 21.2549 270.569 19.8986 271.544 18.86C272.518 17.8218 273.795 17.3026 275.374 17.3026C276.127 17.3026 276.881 17.4297 277.639 17.6841C278.396 17.9384 279.077 18.2879 279.681 18.7332L281.08 16.4761C280.296 15.904 279.416 15.4484 278.442 15.1092C277.467 14.7703 276.418 14.6005 275.295 14.6005C273.642 14.6005 272.19 14.9556 270.94 15.6655C269.689 16.3754 268.715 17.3554 268.015 18.6057C267.316 19.856 266.966 21.2971 266.966 22.9286C266.966 24.5607 267.316 26.0016 268.015 27.2516C268.715 28.5021 269.689 29.4825 270.94 30.1921C272.19 30.9017 273.642 31.2573 275.295 31.2573C276.471 31.2573 277.581 31.0664 278.624 30.6849C279.668 30.3034 280.603 29.7741 281.43 29.0954Z"/><path fill="#1877F2" d="M295.861 30.8758H298.849L298.849 21.244C298.849 19.1781 298.298 17.5543 297.196 16.3727C296.094 15.1915 294.579 14.6005 292.65 14.6005C291.453 14.6005 290.351 14.8496 289.344 15.3474C288.338 15.8455 287.522 16.5075 286.897 17.334V6.87599L283.909 7.19406V30.8755H286.897V22.4834C286.897 20.9365 287.353 19.6759 288.264 18.7009C289.175 17.7261 290.393 17.2385 291.919 17.2385C293.148 17.2385 294.113 17.6283 294.812 18.4069C295.511 19.1857 295.861 20.2586 295.861 21.6255V30.8758Z"/></g></g></svg>

<svg xmlns="http://www.w3.org/2000/svg" fill="none" aria-hidden="true" viewBox="0 0 304 45"><g fill="#1877F2"><path d="m31.493 20.801-9.246 5.474c-.85.504-1.93-.104-1.93-1.085V14.241c0-.981 1.08-1.59 1.93-1.085l9.246 5.474a1.26 1.26 0 0 1 0 2.171Z"/><path fill-rule="evenodd" d="M40.118 35.725h-29.49a5.483 5.483 0 0 1-5.477-5.477V9.184a5.483 5.483 0 0 1 5.477-5.477h29.49a5.482 5.482 0 0 1 5.476 5.477v21.064a5.483 5.483 0 0 1-5.476 5.477Zm-29.49-29.49a2.953 2.953 0 0 0-2.95 2.95v21.064a2.953 2.953 0 0 0 2.95 2.949h29.49a2.952 2.952 0 0 0 2.948-2.95V9.185a2.952 2.952 0 0 0-2.949-2.95h-29.49v.002Z" clip-rule="evenodd"/><path d="M17.484 40.78h15.778a.957.957 0 0 0 .959-.958v-.611a.958.958 0 0 0-.958-.959H17.484a.958.958 0 0 0-.958.959v.611a.959.959 0 0 0 .958.959Zm37.608-9.904h3.115v-9.06h10.427v-2.702H58.207v-7.788h12.016V8.625h-15.13v22.25Z"/><path fill-rule="evenodd" d="M85.035 30.876h2.893V14.98h-2.893l-.063 2.4c-.647-.847-1.489-1.523-2.527-2.026-1.039-.503-2.167-.755-3.386-.755-1.473 0-2.789.36-3.95 1.08-1.16.721-2.073 1.71-2.741 2.965-.667 1.256-1.001 2.684-1.001 4.283 0 1.6.334 3.028 1.001 4.284.668 1.256 1.582 2.244 2.742 2.964 1.16.72 2.476 1.081 3.95 1.081 1.218 0 2.346-.252 3.385-.755 1.038-.503 1.88-1.178 2.527-2.026l.063 2.4Zm-2.606-2.988c-.794.487-1.706.73-2.734.73s-1.94-.243-2.734-.73a5.104 5.104 0 0 1-1.867-2.01c-.45-.854-.675-1.837-.675-2.95 0-1.112.225-2.095.675-2.948a5.101 5.101 0 0 1 1.867-2.01c.795-.487 1.706-.732 2.734-.732s1.94.244 2.734.732a5.109 5.109 0 0 1 1.867 2.01c.45.853.676 1.836.676 2.949 0 1.112-.225 2.095-.676 2.948a5.1 5.1 0 0 1-1.867 2.01Z" clip-rule="evenodd"/><path d="m105.156 29.095-1.398-2.256a7.888 7.888 0 0 1-2.217 1.264 6.954 6.954 0 0 1-2.44.452c-1.579 0-2.855-.519-3.83-1.557-.975-1.039-1.463-2.395-1.463-4.07 0-1.673.488-3.03 1.463-4.068.975-1.038 2.251-1.557 3.83-1.557a7.08 7.08 0 0 1 2.265.381 7.355 7.355 0 0 1 2.042 1.05l1.399-2.258a10.054 10.054 0 0 0-2.638-1.367 9.525 9.525 0 0 0-3.147-.508c-1.654 0-3.105.355-4.355 1.064a7.571 7.571 0 0 0-2.925 2.94c-.7 1.251-1.049 2.692-1.049 4.324 0 1.632.35 3.073 1.05 4.323a7.572 7.572 0 0 0 2.924 2.94c1.25.71 2.702 1.065 4.355 1.065a9.617 9.617 0 0 0 6.134-2.162Z"/><path fill-rule="evenodd" d="m121.67 29.16-1.335-2.258c-.816.552-1.659.975-2.528 1.271a8.242 8.242 0 0 1-2.686.446c-1.536 0-2.789-.39-3.758-1.168-.97-.78-1.571-1.852-1.804-3.219h12.301v-1.78c0-2.448-.665-4.368-1.995-5.762-1.329-1.393-3.144-2.09-5.443-2.09-1.568 0-2.954.353-4.156 1.058a7.432 7.432 0 0 0-2.821 2.932c-.679 1.25-1.017 2.696-1.017 4.339 0 1.674.352 3.136 1.056 4.386a7.353 7.353 0 0 0 2.965 2.909c1.271.689 2.754 1.033 4.45 1.033a12.322 12.322 0 0 0 3.663-.548c1.182-.366 2.218-.882 3.108-1.55Zm-10.609-10.81c.852-.826 1.973-1.24 3.361-1.24 1.346 0 2.418.414 3.219 1.24.8.827 1.2 1.918 1.2 3.274v.16h-9.33c.18-1.463.697-2.607 1.55-3.434Zm13.883 12.526h2.892l.064-2.4c.646.848 1.489 1.523 2.527 2.026 1.038.504 2.167.755 3.385.755 1.473 0 2.79-.36 3.95-1.081 1.16-.72 2.074-1.708 2.742-2.964.667-1.256 1.001-2.684 1.001-4.283 0-1.6-.334-3.028-1.001-4.284-.668-1.255-1.582-2.243-2.742-2.964-1.16-.72-2.477-1.08-3.95-1.08-1.208 0-2.326.246-3.353.738-1.028.493-1.87 1.158-2.527 1.995V6.876l-2.988.318v23.682Zm10.966-2.988c-.794.487-1.706.73-2.734.73-1.027 0-1.939-.243-2.733-.73a5.107 5.107 0 0 1-1.868-2.01c-.45-.854-.675-1.837-.675-2.95 0-1.112.225-2.095.675-2.948a5.101 5.101 0 0 1 1.868-2.01c.794-.487 1.705-.732 2.733-.732s1.939.244 2.734.732a5.1 5.1 0 0 1 1.867 2.01c.45.853.676 1.836.676 2.949 0 1.112-.225 2.095-.676 2.948a5.096 5.096 0 0 1-1.867 2.01Zm11.475 2.304c1.25.71 2.702 1.065 4.355 1.065 1.653 0 3.104-.355 4.355-1.065a7.569 7.569 0 0 0 2.924-2.94c.699-1.25 1.049-2.691 1.049-4.323 0-1.632-.35-3.073-1.049-4.323a7.571 7.571 0 0 0-2.924-2.94c-1.251-.71-2.702-1.066-4.355-1.066-1.653 0-3.105.356-4.355 1.066a7.571 7.571 0 0 0-2.924 2.94c-.7 1.25-1.05 2.691-1.05 4.323 0 1.632.35 3.073 1.05 4.323a7.569 7.569 0 0 0 2.924 2.94Zm7.089-2.304c-.795.487-1.706.73-2.734.73s-1.939-.243-2.734-.73a5.105 5.105 0 0 1-1.867-2.01c-.45-.854-.675-1.837-.675-2.95 0-1.112.225-2.095.675-2.948a5.106 5.106 0 0 1 1.867-2.01c.795-.487 1.706-.732 2.734-.732s1.939.244 2.734.732a5.118 5.118 0 0 1 1.868 2.01c.45.853.675 1.836.675 2.949 0 1.112-.225 2.095-.675 2.948a5.113 5.113 0 0 1-1.868 2.01Zm11.475 2.304c1.25.71 2.701 1.065 4.355 1.065 1.652 0 3.104-.355 4.354-1.065a7.565 7.565 0 0 0 2.925-2.94c.699-1.25 1.048-2.691 1.048-4.323 0-1.632-.349-3.073-1.048-4.323a7.567 7.567 0 0 0-2.925-2.94c-1.25-.71-2.702-1.066-4.354-1.066-1.654 0-3.105.356-4.355 1.066a7.574 7.574 0 0 0-2.925 2.94c-.699 1.25-1.049 2.691-1.049 4.323 0 1.632.35 3.073 1.049 4.323a7.571 7.571 0 0 0 2.925 2.94Zm7.088-2.304c-.794.487-1.706.73-2.733.73-1.028 0-1.94-.243-2.734-.73a5.1 5.1 0 0 1-1.868-2.01c-.45-.854-.675-1.837-.675-2.95 0-1.112.225-2.095.675-2.948a5.101 5.101 0 0 1 1.868-2.01c.794-.487 1.706-.732 2.734-.732 1.027 0 1.939.244 2.733.732a5.11 5.11 0 0 1 1.868 2.01c.45.853.675 1.836.675 2.949 0 1.112-.225 2.095-.675 2.948a5.105 5.105 0 0 1-1.868 2.01Z" clip-rule="evenodd"/><path d="M181.429 30.876h2.988v-7.55l7.803 7.55h4.085l-8.71-8.392 7.597-7.502h-3.671l-7.104 7.025V6.876l-2.988.318v23.682Zm44.469 0h3.274l7.28-22.251h-3.195l-5.689 17.96-5.595-17.261h-3.052l-5.594 17.26-5.69-17.96h-3.322l7.279 22.252h3.274l5.515-16.943 5.515 16.943Z"/><path fill-rule="evenodd" d="M250.183 30.876h2.893V14.98h-2.893l-.064 2.4c-.646-.847-1.489-1.523-2.527-2.026-1.039-.503-2.167-.755-3.385-.755-1.472 0-2.789.36-3.95 1.08-1.159.721-2.074 1.71-2.741 2.965-.667 1.256-1.001 2.684-1.001 4.283 0 1.6.334 3.028 1.001 4.284.667 1.256 1.582 2.244 2.741 2.964 1.161.72 2.477 1.081 3.95 1.081 1.218 0 2.346-.252 3.385-.755 1.039-.503 1.881-1.178 2.527-2.026l.064 2.4Zm-2.606-2.988c-.795.487-1.706.73-2.734.73s-1.939-.243-2.734-.73a5.105 5.105 0 0 1-1.867-2.01c-.451-.854-.676-1.837-.676-2.95 0-1.112.225-2.095.676-2.948a5.106 5.106 0 0 1 1.867-2.01c.795-.487 1.706-.732 2.734-.732s1.939.244 2.734.732a5.1 5.1 0 0 1 1.867 2.01c.451.853.676 1.836.676 2.949 0 1.112-.225 2.095-.676 2.948a5.096 5.096 0 0 1-1.867 2.01Z" clip-rule="evenodd"/><path d="M265.918 30.748v-2.543c-.568.087-1.142.13-1.717.128-1.176 0-2.037-.255-2.583-.763-.545-.508-.818-1.43-.818-2.766v-7.247h4.8l.381-2.575H260.8v-4.8h-2.988v4.8h-2.956v2.575h2.957v7.422c0 2.024.439 3.528 1.318 4.514.88.985 2.294 1.478 4.244 1.478.43 0 .859-.021 1.287-.064.42-.04.839-.093 1.256-.159Zm15.512-1.653-1.399-2.256a7.877 7.877 0 0 1-2.218 1.264 6.946 6.946 0 0 1-2.439.452c-1.579 0-2.856-.519-3.83-1.557-.976-1.039-1.463-2.395-1.463-4.07 0-1.673.488-3.03 1.463-4.068.974-1.038 2.251-1.557 3.83-1.557.753 0 1.507.127 2.265.381a7.369 7.369 0 0 1 2.042 1.05l1.399-2.258a10.054 10.054 0 0 0-2.638-1.367 9.52 9.52 0 0 0-3.147-.508c-1.653 0-3.105.355-4.355 1.064a7.574 7.574 0 0 0-2.925 2.94c-.699 1.251-1.049 2.692-1.049 4.324 0 1.632.35 3.073 1.049 4.323a7.571 7.571 0 0 0 2.925 2.94c1.25.71 2.702 1.065 4.355 1.065a9.616 9.616 0 0 0 6.135-2.162Zm14.431 1.781h2.988v-9.632c0-2.066-.551-3.69-1.653-4.871-1.102-1.182-2.617-1.773-4.546-1.773-1.197 0-2.299.25-3.306.747-1.006.498-1.822 1.16-2.447 1.987V6.876l-2.988.318v23.681h2.988v-8.392c0-1.547.456-2.807 1.367-3.782.911-.975 2.129-1.463 3.655-1.463 1.229 0 2.194.39 2.893 1.169.699.779 1.049 1.852 1.049 3.218v9.25Z"/></g></svg>
